X:1
T:Title
%%score { ( 1 3 4 ) | ( 2 5 ) }
L:1/8
M:2/4
K:D
V:1 treble nm="Grand Piano"
V:3 treble 
V:4 treble 
V:2 bass 
V:5 bass 
V:1
 z2 z[Q:1/4=100] [Fd] | [Fc][FB] [FA][=F^G] | [FB]2 [FA]F | FF FF | G3 [CF] | %5
 [CE][=C^D] [^CE][=DF] | [EG]2 [Gc][GB] | [CA][CB] [CE][A,CG] | [A,DF]3 F | [DF][Fd] [Fd][Ec] | %10
 [DB]2 [DF][DF] | [DF][Fd] [Fd][Ec] | [DB]3 [DA] | ^GG FE | AB c[Fd] | [Ec][CEA] [D^GB][EGc] | %16
 .[CA]2 z2 | d4- | d z z2 | z2 =G2- | G z[K:bass] z2 | z c cc | cE, cB, | z d z2 | .[FAd]2 z2 | %25
 d4- | d z z2 | z2 B2- | B z z2 | BA Ad | [^Gd]2 [=Gc]2 | [Fd]4- |[M:1/4] [Fd] z |[M:4/4] z2 B6 | %34
 GB z2 .B,2 z F | z2 e6 | z2 F6 | z2 =c6 | A=c z2 .=C2 z F | z2 e6 | z2 B6 | z4 z2 B2 | %42
 z[K:bass] F, z[K:treble] B BB .B2 | z4 z2 d2 | [EGc]2 [FAd][K:bass]D, F,E,D,=C, | z2 B6 | %46
 GB z2 .B,2 z F | z2 e6 | z2 F6 | z2 =c6 | A=c z2 .=C2 z F | z2 e6 | z2 B6 | %53
 G>G [Gd]2 [Gd]2 [Gc]2 | [Gc]2 [F=c]2- [Fc][Fc] [GB]2- | [GB]2 [EA][EB] [E=c][Ed] [Ee]2 | %56
 [E=c]2 [EA]6 | z2 [ea][eb] [e=c'][ed'] [ee']2 | [e=c']2 [ea]4 [DFA]2 | [DFA]2 [DGd]4 [EG=c]2 | %60
 [^DG]2 [=DGB]4 [=CFA]2- | [CFA]2 [B,DG]6- |[M:7/8] [B,DG]-[B,DG]-[B,DG]- [B,DG]3 z |[M:1/8] z | %64
 z |[M:2/4] [Fd][Fc] [FB][FA] | [=F^G] [^FB]2 [FA] | FF FF | F G3 | [CF][CE] [=C^D][^CE] | %70
 [DF] [EG]2 [Gc] | [GB][CA] [CB][CE] | [A,CG] [A,DF]3 | F[DF] [Fd][Fd] | [Ec] [DB]2 [DF] | %75
 [DF][DF] [Fd][Fd] | [Ec] [DB]3 | [DA]^G GF | EA Bc | [Fd][Ec] [CEA][D^GB] | [E^Gc][CA] z2 | %81
 z d3- | d2 z2 | z2 z =G- | G2 z2[K:bass] | .F,2[K:treble] cc | cc E,c | z2 .d2 | [FAd][FAd] z2 | %89
 z d3- | d2 z2 | z2 z B- | B2 z2 | z4 | d [^Gd]2 [=Gc]- | [Gc] [Fd]3- |[M:5/4] [Fd]2 z2 z2 z4 |] %97
V:2
 z2 z [D,A,] | [D,A,][D,A,] [D,A,][D,B,] | [D,A,]2 [D,A,][D,A,D] | %3
 [D,A,D][D,A,D] [^D,A,=C][D,A,C] | [E,A,C]3 [A,,A,] | [A,,A,][A,,A,] [A,,A,][A,,A,] | %6
 [A,,A,]2 [A,,A,][A,,A,] | [A,,E,][A,,E,] A,,A,, | D,3 F, | [B,,B,][B,,B,] [F,^A,][F,A,] | %10
 [B,,B,]2 [B,,B,][B,,B,] | [B,,B,][D,B,] [F,^A,][F,A,] | [B,,B,]3 [B,,B,] | %13
 [E,B,D][E,B,D] [E,A,D][E,^G,D] | [F,A,C][E,^G,E] [A,E][D,A,] | [E,A,]E, E,E, | .A,2[K:treble] dc | %17
 D,A, F,A, | .F,2 .[F,A,D]2 | E,A, .[G,C]2 | .G,2 z2 | z[K:treble] [EA] [EA][EA] | %22
 .[EA]2 .[CEGA]2 | z [DFA][K:bass] z D | .D2[K:treble] FA | D,A, F,A, | .F,2 .[F,A,D]2 | %27
 G,,D, .[G,B,]2 | .G,2[K:treble] [G,DG]2 | [A,DF][A,DF] [A,DF][A,F] | [E,B,]2 [A,,A,]2 | [D,A,]4- | %32
[M:1/4] [D,A,] z |[M:4/4] z2 G,,D, G,D, G,2 | D,2 G,,D, G,D, G,2 | D,2 G,,D, G,D, G,2 | %36
 D,2 A,,D, A,D, A,2 | D,2 D,,D, F,D, F,2 | D,2 D,,D, F,D, F,2 | D,2 D,,D, F,D, F,2 | %40
 D,2 G,,D, G,D, G,2 | z2 z[K:treble] [^DF] [DF][DF] [DF]2 | .[F,EF]2 z [^DF] [DF][DF] .[DF]2 | %43
 z2 z [FA] [FA][FA] [FA]2 | A,[K:bass]A,D,D,, F,,E,, .D,,2 | B,,A,,G,,D, G,D, G,2 | %46
 D,2 G,,D, G,D, G,2 | D,2 G,,D, G,D, G,2 | D,2 A,,D, A,D, A,2 | D,2 D,,D, F,D, F,2 | %50
 D,2 D,,D, F,D, F,2 | D,2 D,,D, F,D, F,2 | D,2 G,,D, G,D, G,2 | G,>G, [=F,B,]2 [F,B,]2 [E,^A,]2 | %54
 [E,^A,]2 [^D,=A,]2- [D,A,][D,A,] [E,G,]2- | [E,G,]2 [=C,=C][C,C] [C,C][C,C] [C,C]2 | %56
 [=C,A,]2 [C,=C]6 | z2[K:treble] [=CEA][CEA] [CEA][CEA] [CEA]2 | [=CEA]2 [CEA]4[K:bass] D,2 | %59
 =C,2 B,,4 C,2 | =C,2 D,4 D,2- | D,2 G,,6- |[M:7/8] G,,-G,,-G,,- G,,3 z |[M:1/8] z | z | %65
[M:2/4] [D,A,][D,A,] [D,A,][D,A,] | [D,B,] [D,A,]2 [D,A,] | [D,A,D][D,A,D] [D,A,D][^D,A,=C] | %68
 [^D,A,=C] [E,A,^C]3 | [A,,A,][A,,A,] [A,,A,][A,,A,] | [A,,A,] [A,,A,]2 [A,,A,] | %71
 [A,,A,][A,,E,] [A,,E,]A,, | A,, D,3 | F,[B,,B,] [B,,B,][F,^A,] | [F,^A,] [B,,B,]2 [B,,B,] | %75
 [B,,B,][B,,B,] [D,B,][F,^A,] | [F,^A,] [B,,B,]3 | [B,,B,][E,B,D] [E,B,D][E,A,D] | %78
 [E,^G,D][F,A,C] [E,G,E][A,E] | [D,A,][E,A,] E,E, | E,A, z[K:treble] d | c[K:bass]D, A,F, | %82
 A,F, z [F,A,D] | z E, A,[G,C] | z G, z2 | z2[K:treble] [EA][EA] | [EA][EA] z [CEGA] | %87
 z2 .[DFA]2[K:bass] | DD z[K:treble] F | A[K:bass]D, A,F, | A,F, z [F,A,D] | z G,, D,[G,B,] | %92
 z G, z[K:treble] [G,DG]- | [G,DG][A,DF] [A,DF][A,DF] | [A,F][K:bass] [E,B,]2 [A,,A,]- | %95
 [A,,A,] [D,A,]3- |[M:5/4] [D,A,]2 z2 z2 z4 |] %97
V:3
 x4 | x4 | x4 | x4 | x4 | x4 | x4 | x4 | x4 | x4 | x4 | x4 | x4 | x4 | x4 | x4 | x4 | z2 .D2 | %18
 Dc BF | A>^G z A, | .C2[K:bass] E,F, | G,4- | G, z z2 | z z/ G,/ [DFAd][FAd] | x4 | z2 .D2 | %26
 Dd cd | e>d z D, | .B,2 B2 | x4 | x4 | x4 |[M:1/4] x2 |[M:4/4] D2 z2 .B,2 z F | z2 D6 | %35
 GB z2 .B,2 z d | Gd z2 .=C2 C2 | D2 z2 .=C2 z ^G | z2 D6 | A=c z2 .=C2 z d | Ad z2 .B,2 B,2 | %41
 B,2 z B BB z B, | ^A2[K:bass] B,,6[K:treble] | D2 z d dd z D | x3[K:bass] x5 | D2 z2 .B,2 z F | %46
 z2 D6 | GB z2 .B,2 z d | Gd z2 .=C2 C2 | D2 z2 .=C2 z ^G | z2 D6 | A=c z2 .=C2 z d | %52
 Ad z2 .B,2 B,2 | x8 | x8 | x8 | x8 | x8 | x8 | x8 | x8 | x8 |[M:7/8] x7 |[M:1/8] x | x | %65
[M:2/4] x4 | x4 | x4 | x4 | x4 | x4 | x4 | x4 | x4 | x4 | x4 | x4 | x4 | x4 | x4 | x4 | z2 z D | %82
 z D cB | FA- A<.^G | A,C z[K:bass] E, | z[K:treble] G,3- | G,2 z2 | .B,2 z/ G,/[DFAd] | x4 | %89
 z2 z D | z D dc | de- e<.d | D,B, z B- | BB AA | x4 | x4 |[M:5/4] x10 |] %97
V:4
 x4 | x4 | x4 | x4 | x4 | x4 | x4 | x4 | x4 | x4 | x4 | x4 | x4 | x4 | x4 | x4 | x4 | x4 | x4 | %19
 x4 | x2[K:bass] x2 | x4 | x4 | A,2 z2 | x4 | x4 | x4 | x4 | x4 | x4 | x4 | x4 |[M:1/4] x2 | %33
[M:4/4] z4 z2 B,2 | z4 z2 B,2 | z4 z2 B,2 | x8 | z4 z2 =C2 | z4 z2 =C2 | z4 z2 =C2 | x8 | z2 B,6 | %42
 x[K:bass] x2[K:treble] x5 | z2 D6 | x3[K:bass] x5 | z4 z2 B,2 | z4 z2 B,2 | z4 z2 B,2 | x8 | %49
 z4 z2 =C2 | z4 z2 =C2 | z4 z2 =C2 | x8 | x8 | x8 | x8 | x8 | x8 | x8 | x8 | x8 | x8 |[M:7/8] x7 | %63
[M:1/8] x | x |[M:2/4] x4 | x4 | x4 | x4 | x4 | x4 | x4 | x4 | x4 | x4 | x4 | x4 | x4 | x4 | x4 | %80
 x4 | x4 | x4 | x4 | x3[K:bass] x | x[K:treble] x3 | x4 | z .A,3 | x4 | x4 | x4 | x4 | x4 | x4 | %94
 x4 | x4 |[M:5/4] x10 |] %97
V:5
 x4 | x4 | x4 | x4 | x4 | x4 | x4 | x4 | x4 | x4 | x4 | x4 | x4 | x4 | x4 | x4 | x2[K:treble] x2 | %17
 x4 | x4 | x4 | x4 | x[K:treble] x3 | x4 | z2[K:bass] F,2- | F, z[K:treble] z2 | x4 | x4 | x4 | %28
 x2[K:treble] x2 | x4 | x4 | x4 |[M:1/4] x2 |[M:4/4] x8 | x8 | x8 | x8 | x8 | x8 | x8 | x8 | %41
 x3[K:treble] x5 | x8 | x8 | x[K:bass] x7 | x8 | x8 | x8 | x8 | x8 | x8 | x8 | x8 | x8 | x8 | x8 | %56
 x8 | x2[K:treble] x6 | x6[K:bass] x2 | x8 | x8 | x8 |[M:7/8] x7 |[M:1/8] x | x |[M:2/4] x4 | x4 | %67
 x4 | x4 | x4 | x4 | x4 | x4 | x4 | x4 | x4 | x4 | x4 | x4 | x4 | x3[K:treble] x | x[K:bass] x3 | %82
 x4 | x4 | x4 | x2[K:treble] x2 | x4 | z2 z[K:bass] F,- | F,2 z2[K:treble] | x[K:bass] x3 | x4 | %91
 x4 | x3[K:treble] x | x4 | x[K:bass] x3 | x4 |[M:5/4] x10 |] %97

